X:2821
T:the Otter's Holt
O:Ireland
R:Reel
M:4/4
%%ID:00000c85
Z:Richard Robinson 
F: http://www.leeds.ac.uk/music/Info/RRTuneBk/gettune/00000c85.abc
K:Bm
de|\
fB BA FE FB | A2 FB AB de | fB BA FE FA | Bd cA B2 de|
fB BA FE FB | A2 FB AB de | fa af eg fe | dB BA B2 ::
c2 |\
d2 fd Ad fa | bf af ed Bc | d2 fd Ad fa | bf af e2 A2 |
d2 fd Ad fa | bf af e2 de | fB BA FE FA | Bd cA B2 :|
